src/assets/svg/deriv-footer.svg

<svg xmlns="http://www.w3.org/2000/svg" viewBox="0 0 147 25"><defs><linearGradient id="a" x1="-388.13" y1="1321.44" x2="-388.13" y2="1320.44" gradientTransform="matrix(26.91 0 0 -25 10457.84 33036)" gradientUnits="userSpaceOnUse"><stop offset="0" stop-color="#ff6544"/><stop offset="1" stop-color="#ff4449"/></linearGradient></defs><g data-name="Layer 2"><g data-name="Layer 1"><g data-name="2--logogram"><g data-name="logo/logogram"><path d="M5.86 0v0l9.73 12.5L0 25v0h15.74a9.83 9.83 0 0 0 9.61-7.53l1.31-5.57a9.6 9.6 0 0 0-1.9-8.23A9.9 9.9 0 0 0 17.05 0z" style="fill:url(#a)"/><path data-name="Path" style="fill:#b51a31" d="M15.58 12.53 8.74 25H0l15.58-12.47z"/></g></g><path d="m129.57 1 3.15 16.78L141.56 1H147l-13.34 24h-4.46L124 1zM48.35 1C55.75 1 60 6.18 58.81 12.93V13a14.71 14.71 0 0 1-14.62 12H35l4.15-24zm51.85 0c3 0 5.26.86 6.56 2.44a6.57 6.57 0 0 1 1.09 5.48v.07a9.32 9.32 0 0 1-6.44 7.44l4.33 8.57h-6.17l-5.75-12.35h4c2.57 0 4.28-1.38 4.64-3.39v-.07c.4-2.26-1-3.42-3.54-3.42h-5.25L90.28 25H85l4.23-24zM118 1l-4 24h-5l4-24zM84 1l-.82 4.7H70.52l-.85 4.87h8.18l-.85 4.7h-8.14l-.88 5h12.84L80 25H62l4.17-24zM47.77 6h-4.16L41 20h4.17a8.53 8.53 0 0 0 8.68-6.93V13c.78-4.11-1.66-7-6.08-7z"/></g></g></svg>

<svg xmlns="http://www.w3.org/2000/svg" xmlns:xlink="http://www.w3.org/1999/xlink" viewBox="0 0 147 25">
    <title id='deriv-footer'>Deriv footer</title>
    <defs>
        <linearGradient id="linear-gradient" x1="-388.13" y1="1321.44" x2="-388.13" y2="1320.44"
            gradientTransform="matrix(26.91, 0, 0, -25, 10457.84, 33036)" gradientUnits="userSpaceOnUse">
            <stop offset="0" stop-color="#ff6544" />
            <stop offset="1" stop-color="#ff4449" />
        </linearGradient>
    </defs>
    <g id="Layer_2" data-name="Layer 2">
        <g id="Layer_1-2" data-name="Layer 1">
            <g id="_2--logogram" data-name="2--logogram">
                <g id="logogram">
                    <g id="logo_logogram" data-name="logo/logogram">
                        <path id="Path"
                            d="M5.86,0V0L15.59,12.5,0,25v0H15.74a9.83,9.83,0,0,0,9.61-7.53l1.31-5.57a9.6,9.6,0,0,0-1.9-8.23A9.9,9.9,0,0,0,17.05,0Z"
                            style="fill:url(#linear-gradient)" />
                        <polygon id="Path-2" data-name="Path" points="15.58 12.53 8.74 25 0 25 15.58 12.53"
                            style="fill:#b51a31" />
                    </g>
                </g>
            </g>
            <path id="Combined-Shape-Copy"
                d="M129.57,1l3.15,16.78L141.56,1H147L133.66,25H129.2L124,1ZM48.35,1C55.75,1,60,6.18,58.81,12.93V13A14.71,14.71,0,0,1,44.19,25H35L39.15,1ZM100.2,1c3,0,5.26.86,6.56,2.44a6.57,6.57,0,0,1,1.09,5.48h0l0,.07a9.32,9.32,0,0,1-6.44,7.44h0L105.74,25H99.57L93.82,12.65h4c2.57,0,4.28-1.38,4.64-3.39h0V9.19c.4-2.26-1-3.42-3.54-3.42H93.67L90.28,25H85L89.23,1ZM118,1l-4,24h-5l4-24ZM84,1l-.82,4.7H70.52l-.85,4.87h8.18L77,15.27H68.86l-.88,5H80.82L80,25H62L66.17,1ZM47.77,6H43.61L41,20h4.17a8.53,8.53,0,0,0,8.68-6.93V13C54.63,8.89,52.19,6,47.77,6Z" />
        </g>
    </g>
</svg>
